shader_type canvas_item;

//Basic Graphic Shader for demonstrating math 

float plot(vec2 uv, float percent) {
	return smoothstep(percent - 0.01, percent, uv.y) - smoothstep(percent, percent + 0.01, uv.y);
}

void fragment() {
	vec2 uv = vec2(1. - UV.x, UV.y);
	float y = uv.x;	
	vec3 color = vec3(1.0 - y);
	float percent = plot(uv, y);
	color = (1.0 - percent) * color + percent * vec3(0., 1., 0.0);
	COLOR = vec4(color, 1.);
}